icon-svg/panel-glass-door3-open.svg

<?xml version="1.0" encoding="UTF-8"?>
<svg width="24px" height="24px" viewBox="0 0 24 24" version="1.1" fill="#44739e" xmlns="http://www.w3.org/2000/svg" xmlns:xlink="http://www.w3.org/1999/xlink">
            <path d="M 22.699219,2.140625 10.720703,2.169922 v 0.9882812 0 V 22.169922 3.1582031 H 1.3691406 V 22.169922 22.929688 H 22.699219 Z m -10.59961,1.0898438 h 9.339844 V 22.230469 l -9.339844,-0.06055 z M 5.0511028,4.4369599 H 8.1967603 V 8.6676472 H 5.0365233 Z M 5.2109375,4.609375 V 8.5195312 H 8 V 4.609375 Z M 5.3203125,4.75 H 7.8691406 V 8.3496094 H 5.3203125 Z m -0.2837892,5.2496433 3.1845362,-0.00486 -0.00972,4.3356517 -3.189396,0.01458 z m 0.1744142,0.2112947 v 3.908203 H 8 v -3.908203 z m 0.109375,0.128906 h 2.5488281 v 3.599609 H 5.3203125 Z m -0.2789293,5.560282 3.1699566,0.01458 -0.00972,4.306493 -3.1699566,0.0097 z m 0.1695544,0.230735 v 3.908203 H 8 v -3.908203 z m 0.109375,0.128907 h 2.5488281 v 3.599609 H 5.3203125 Z"></path>

</svg>

<svg xmlns="http://www.w3.org/2000/svg" fill="#44739e" viewBox="0 0 24 24"><path d="M22.6992 2.1406 10.7207 2.17v20V3.1582H1.3691v19.7715h21.3301ZM12.0996 3.2305h9.3399v19l-9.3399-.0606zM5.0511 4.437h3.1457v4.2306H5.0365Zm.1598.1724v3.9101H8V4.6094Zm.1094.1406h2.5488v3.5996H5.3203Zm-.2838 5.2496 3.1846-.0048-.0098 4.3356-3.1894.0146zm.1744.2113v3.9082H8V10.211zm.1094.129h2.5488v3.5996H5.3203ZM5.0413 15.9l3.17.0146-.0097 4.3065-3.17.0097zm.1696.2308v3.9082H8v-3.9082zm.1094.1289h2.5488v3.5996H5.3203Z"/></svg>
